X:55
T:The Gravel Walks
M:4/4
L:1/8
R:reel
K:Ador
|:A2eA BAeA|A2eA BAGB|A2eA (3Bcd ef|gedc BAGB:|
|:A2aA gAfA|A2eA BAGB|1 A2aA gAfa|gedc BAGB:|2 ABcd efga|gedc BAGB|
|:cAAG ~A3B|cA~A2 dBGB|cAAG A2ef|gedc BAGB:|
|:c2gc acgc|c2ec BAGB|c2gc acga|gedc BAGB|
c2gc acgc|c2dc BAGB|ABcd efga|gedc BAGB:|
